X: 21222
T: BIDE YE YET
%R: jig
B: "Edinburgh Repository of Music" v.2 p.122 #2
F: http://digital.nls.uk/special-collections-of-printed-music/pageturner.cfm?id=87776133
Z: 2015 John Chambers <jc:trillian.mit.edu>
M: 6/8
L: 1/8
K: Dm
A |\
A2d d>ef | A2c c2B | A2d d>ef | A2d d2c |\
A2f f>ga | A2c c2B | {B}A2G F2G | A2d d2 :|
|: c/B/ |\
A>GF F2G | A2c {c}B>AG | {B}AGF F2G | A2d d2c/B/ |\
A>GF F2G | A2c {c}BAG | A2d d>ef | A2d d2 :|
